X: 1283
T: Körfezdeki Dalgın Suya Bir Bak
C: Osman Nihat Akın
O: Turkey
F: http://compmusic.upf.edu/node/140
N: nihavent--sarki--turkaksagi--korfezdeki_dalgin--osman_nihat_akin
N: makam= nihavent
N: form= sarki
N: usul= turkaksagi = 5/8
M: 5/8
L: 1/16
K: C _B _e  
Q: 1/4=108
%%MIDI tuningsystem comma53
gg/f/ge d6 | d2 d2d6  | Bcde gfed cB | BA A/G/G/^F/G6  | 
w:  Kör *  *  *  *  fez  |  de ki  dal  |  gın   |  su *  ya  *  *  *  bir   | 
d8-d2 | de dfe3/2d/ c=Bc2  | d2ef gafg (3fed | 
w:  bak   |   |  gö re *  cek  | 
d4d/e/f/e/ d/c/B/A/G2  | gg/f/ge d6 | \
w:  sin   SAZ  |  Kör *  *  *  *  fez  | 
d2 d2d6  | Bcde gfed cB | 
w:  de ki  dal  |  gın   | 
BA A/G/G/^F/G6  | d8-d2 | de dfe3/2d/ c=Bc2  | \
w:  su *  ya  *  *  *  bir   |  bak   |   | 
d2ef gafg (3fed | 
w:  gö re *  cek  | 
d4d/e/f/g/ f/e/d/c/d2  | c3d d6 | g2 g2f/e/d/c/ d4  | \
w:  sin   SAZ  |  Geç *  miş   |  ge ce ler  | 
(3dcB(3cBA B4 AG | 
w:  den   | 
G2 d2d6  | (3edc(3dcB B4 BA | A2 A2B4AG  | \
w:  bi ri  dur  |  mak  |  ta  de rin  | 
G4 d/e/f/g/f/e/d/c/ d2 | 
w:  de   SAZ  | 
c3dd6  | g2g2 f/e/d/c/d4 | (3dcB (3cBAB4AG  | \
w:  Geç *  miş   |  ge ce ler  |  den   | 
G2d2 d6 | 
w:  bi ri  dur  | 
(3edc (3dcBB4BA  | A2A2 B4 AG | G4g/f/e/d/ c/d/e/f/g2  | 
w:  mak  |  ta  de rin  |  de   SAZ  | 
f3g a4 ag | g2 g2ga f4  | g2ab d'c'ba gf | \
w:  Meh *  tab_  |  i ri  gül  |  ler   | 
fe edd4z2  | 
w:  ve  *  se *  nin   | 
d3/2c/=Bc defg ab | b4ba aggf  | aggf g3/2f/e2 ed | 
w:  en   |   |  gü *  zel_ *  ak  | 
d4g/f/e/d/ c/d/e/f/g2  | f3g a4 ag | \
w:  sin   SAZ  |  Meh *  tab_  | 
g2 g2ga f4  | g2ab d'c'ba gf | 
w:  i ri  gül  |  ler   | 
fe edd4z2  | d3/2c/=Bc defg ab | b4ba aggf  | 
w:  ve  *  se *  nin   |  en   |   | 
aggf g3/2f/e2 ed | d4d/e/f/g/ f/e/d/c/d2  | \
w:  gü *  zel_ *  ak  |  sin   SAZ  | 
c3d d6 | 
w:  Geç *  miş   | 
g2 g2f/e/d/c/ d4  | (3dcB(3cBA B4 AG | \
w:  ge ce ler  |  den   | 
G2 d2d6  | (3edc(3dcB B4 BA | 
w:  bi ri  dur  |  mak  | 
A2 A2B4AG  | G4 d/e/f/g/f/e/d/c/ d2 | \
w:  ta  de rin  |  de   SAZ  | 
c3dd6  | g2g2 f/e/d/c/d4 | 
w:  Geç *  miş   |  ge ce ler  | 
(3dcB (3cBAB4AG  | G2d2 d6 | (3edc (3dcBB4BA  | 
w:  den   |  bi ri  dur  |  mak  | 
A2A2 B4 AG | G4|
w:  ta  de rin  |  de    | 


